X: 1
T: CASTLE GARDEN -- JIG
C: Harry Carleton
B: Ryan's Mammoth Collection of Fiddle Tunes
R: jig
M: 6/8
L: 1/8
Z: Contributed 20010707130546 by John Chambers jmchambers:rcn.net
K: G
 uD \
| GFG AFD | GFG Bcd | efg dBG | ABG FED \
| GFG AFD | GFG Bcd | efg dBG | AGG G2 :|
|: ud \
| gfg dBG | gfg ecA | Bdg gfg | abg fed \
| gfg dBG | gfg ecA | Bdg dBG | AGG G2 :|
